src/assets/icons/media-reading-writing,fancy,journal.svg

<svg width="48" height="48" viewBox="0 0 48 48" fill="none" xmlns="http://www.w3.org/2000/svg">
<rect opacity="0.2" x="5" y="5" width="38" height="38" rx="4" fill="black"/>
<rect opacity="0.2" x="5" y="5" width="38" height="38" rx="4" fill="black"/>
<g opacity="0.2">
<path d="M2 12C2 10.8954 3.04467 10 4.33333 10H6.66667C7.95533 10 9 10.8954 9 12C9 13.1046 7.95533 14 6.66667 14H4.33333C3.04467 14 2 13.1046 2 12Z" fill="black"/>
<path d="M2 36C2 34.8954 3.04467 34 4.33333 34H6.66667C7.95533 34 9 34.8954 9 36C9 37.1046 7.95533 38 6.66667 38H4.33333C3.04467 38 2 37.1046 2 36Z" fill="black"/>
<path d="M2 28C2 26.8954 3.04467 26 4.33333 26H6.66667C7.95533 26 9 26.8954 9 28C9 29.1046 7.95533 30 6.66667 30H4.33333C3.04467 30 2 29.1046 2 28Z" fill="black"/>
<path d="M2 20C2 18.8954 3.04467 18 4.33333 18H6.66667C7.95533 18 9 18.8954 9 20C9 21.1046 7.95533 22 6.66667 22H4.33333C3.04467 22 2 21.1046 2 20Z" fill="black"/>
</g>
<mask id="mask0_50:934" style="mask-type:alpha" maskUnits="userSpaceOnUse" x="5" y="5" width="38" height="38">
<rect x="5" y="5" width="38" height="38" rx="4" fill="#9FA4A9"/>
</mask>
<g mask="url(#mask0_50:934)">
<path opacity="0.2" d="M21 20H36" stroke="black" stroke-width="4" stroke-linecap="round"/>
<rect opacity="0.6" x="18" y="9" width="21" height="5" rx="2" fill="black"/>
<path fill-rule="evenodd" clip-rule="evenodd" d="M4.40899 10H6.38803C7.50036 10 8.40207 10.8954 8.40207 12C8.40207 13.1046 7.50036 14 6.38803 14H4.37402V18H6.38803C7.50036 18 8.40207 18.8954 8.40207 20C8.40207 21.1046 7.50036 22 6.38803 22H4.37402V26H6.38803C7.50036 26 8.40207 26.8954 8.40207 28C8.40207 29.1046 7.50036 30 6.38803 30H4.37402V34H6.38803C7.50036 34 8.40207 34.8954 8.40207 36C8.40207 37.1046 7.50036 38 6.38803 38H4.40899C4.48674 39.8723 4.73742 41.0203 5.5456 41.8284C6.71717 43 8.60279 43 12.374 43H14.4442V5H12.374C8.60279 5 6.71717 5 5.5456 6.17157C4.73742 6.97975 4.48674 8.1277 4.40899 10Z" fill="black"/>
</g>
</svg>

<svg xmlns="http://www.w3.org/2000/svg" width="48" height="48" fill="none" viewBox="0 0 48 48">
  <rect width="38" height="38" x="5" y="5" fill="#000" opacity=".2" rx="4"/>
  <rect width="38" height="38" x="5" y="5" fill="#000" opacity=".2" rx="4"/>
  <g opacity=".2">
    <path fill="#000" d="M2 12c0-1.105 1.045-2 2.333-2h2.334C7.955 10 9 10.895 9 12s-1.045 2-2.333 2H4.333C3.045 14 2 13.105 2 12zM2 36c0-1.105 1.045-2 2.333-2h2.334C7.955 34 9 34.895 9 36s-1.045 2-2.333 2H4.333C3.045 38 2 37.105 2 36zM2 28c0-1.105 1.045-2 2.333-2h2.334C7.955 26 9 26.895 9 28s-1.045 2-2.333 2H4.333C3.045 30 2 29.105 2 28zM2 20c0-1.105 1.045-2 2.333-2h2.334C7.955 18 9 18.895 9 20s-1.045 2-2.333 2H4.333C3.045 22 2 21.105 2 20z"/>
  </g>
  <mask id="a" width="38" height="38" x="5" y="5" maskUnits="userSpaceOnUse" style="mask-type:alpha">
    <rect width="38" height="38" x="5" y="5" fill="#9FA4A9" rx="4"/>
  </mask>
  <g mask="url(#a)">
    <path stroke="#000" stroke-linecap="round" stroke-width="4" d="M21 20h15" opacity=".2"/>
    <rect width="21" height="5" x="18" y="9" fill="#000" opacity=".6" rx="2"/>
    <path fill="#000" fill-rule="evenodd" d="M4.409 10h1.979c1.112 0 2.014.895 2.014 2s-.902 2-2.014 2H4.374v4h2.014c1.112 0 2.014.895 2.014 2s-.902 2-2.014 2H4.374v4h2.014c1.112 0 2.014.895 2.014 2s-.902 2-2.014 2H4.374v4h2.014c1.112 0 2.014.895 2.014 2s-.902 2-2.014 2H4.409c.078 1.872.328 3.02 1.137 3.828C6.717 43 8.603 43 12.374 43h2.07V5h-2.07C8.603 5 6.717 5 5.546 6.172 4.737 6.98 4.486 8.128 4.409 10z" clip-rule="evenodd"/>
  </g>
</svg>
